contributed-vectors/inpost.svg

<svg xmlns="http://www.w3.org/2000/svg" xml:space="preserve" style="fill-rule:evenodd;clip-rule:evenodd;stroke-linejoin:round;stroke-miterlimit:2" viewBox="0 0 192 192"><path d="M164.5 21.5c0-5.519-4.481-10-10-10h-133c-5.519 0-10 4.481-10 10v133c0 5.519 4.481 10 10 10h133c5.519 0 10-4.481 10-10v-133Z" style="fill:#f9de81" transform="translate(8 8)"/><path d="M93.693 108.332c5.013 16.155 19.614 28.398 37.506 30.725a47.91 47.91 0 0 1-6.206.401c-25.154 0-45.576-19.473-45.576-43.458s20.422-43.458 45.576-43.458c2.105 0 4.177.136 6.206.401-20.408 2.654-36.534 18.209-39.033 37.754.599 5.488 3.396 11.256 11.475 14.364-2.986 1.582-6.772 2.618-9.948 3.271Z" style="fill:#fff" transform="translate(21.452 35.26) scale(.67312)"/><path d="M82.149 135.898c1.661 2.365 2.731 6.073 2.731 10.239s-1.07 7.874-2.731 10.239c-1.661-2.365-2.732-6.073-2.732-10.239s1.071-7.874 2.732-10.239Z" style="fill:#fff" transform="matrix(.67312 0 0 1.07002 50.852 -103.447)"/><path d="M82.149 135.898c1.661 2.365 2.731 6.073 2.731 10.239s-1.07 7.874-2.731 10.239c-1.661-2.365-2.732-6.073-2.732-10.239s1.071-7.874 2.732-10.239Z" style="fill:#fff" transform="matrix(.58294 -.33656 .535 .92667 -43.403 -48.559)"/><path d="M82.149 135.898c1.661 2.365 2.731 6.073 2.731 10.239s-1.07 7.874-2.731 10.239c-1.661-2.365-2.732-6.073-2.732-10.239s1.071-7.874 2.732-10.239Z" style="fill:#fff" transform="matrix(.33656 -.58294 .92667 .535 -97.586 46.104)"/><path d="M82.149 135.898c1.661 2.365 2.731 6.073 2.731 10.239s-1.07 7.874-2.731 10.239c-1.661-2.365-2.732-6.073-2.732-10.239s1.071-7.874 2.732-10.239Z" style="fill:#fff" transform="matrix(0 -.67312 1.07002 0 -97.179 155.176)"/><path d="M82.149 135.898c1.661 2.365 2.731 6.073 2.731 10.239s-1.07 7.874-2.731 10.239c-1.661-2.365-2.732-6.073-2.732-10.239s1.071-7.874 2.732-10.239Z" style="fill:#fff" transform="matrix(-.33656 -.58294 .92667 -.535 -42.29 249.43)"/><path d="M82.149 135.898c1.661 2.365 2.731 6.073 2.731 10.239s-1.07 7.874-2.731 10.239c-1.661-2.365-2.732-6.073-2.732-10.239s1.071-7.874 2.732-10.239Z" style="fill:#fff" transform="matrix(-.58294 -.33656 .535 -.92667 52.373 303.614)"/></svg>

<?xml version="1.0" encoding="UTF-8" standalone="no"?>
<!DOCTYPE svg PUBLIC "-//W3C//DTD SVG 1.1//EN" "http://www.w3.org/Graphics/SVG/1.1/DTD/svg11.dtd">
<svg width="100%" height="100%" viewBox="0 0 192 192" version="1.1" xmlns="http://www.w3.org/2000/svg" xmlns:xlink="http://www.w3.org/1999/xlink" xml:space="preserve" xmlns:serif="http://www.serif.com/" style="fill-rule:evenodd;clip-rule:evenodd;stroke-linejoin:round;stroke-miterlimit:2;">
    <g id="Layer1">
        <g transform="matrix(1,0,0,1,8,8)">
            <path d="M164.5,21.5C164.5,15.981 160.019,11.5 154.5,11.5L21.5,11.5C15.981,11.5 11.5,15.981 11.5,21.5L11.5,154.5C11.5,160.019 15.981,164.5 21.5,164.5L154.5,164.5C160.019,164.5 164.5,160.019 164.5,154.5L164.5,21.5Z" style="fill:rgb(249,222,129);"/>
        </g>
        <g transform="matrix(0.673121,0,0,0.673121,21.4522,35.2598)">
            <path d="M93.693,108.332C98.706,124.487 113.307,136.73 131.199,139.057C129.17,139.322 127.098,139.458 124.993,139.458C99.839,139.458 79.417,119.985 79.417,96C79.417,72.015 99.839,52.542 124.993,52.542C127.098,52.542 129.17,52.678 131.199,52.943C110.791,55.597 94.665,71.152 92.166,90.697C92.765,96.185 95.562,101.953 103.641,105.061C100.655,106.643 96.869,107.679 93.693,108.332Z" style="fill:white;"/>
            <g transform="matrix(1,0,0,1.58964,43.6772,-206.065)">
                <path d="M82.149,135.898C83.81,138.263 84.88,141.971 84.88,146.137C84.88,150.303 83.81,154.011 82.149,156.376C80.488,154.011 79.417,150.303 79.417,146.137C79.417,141.971 80.488,138.263 82.149,135.898Z" style="fill:white;"/>
            </g>
            <g transform="matrix(0.866025,-0.5,0.794819,1.37667,-96.3497,-124.522)">
                <path d="M82.149,135.898C83.81,138.263 84.88,141.971 84.88,146.137C84.88,150.303 83.81,154.011 82.149,156.376C80.488,154.011 79.417,150.303 79.417,146.137C79.417,141.971 80.488,138.263 82.149,135.898Z" style="fill:white;"/>
            </g>
            <g transform="matrix(0.5,-0.866025,1.37667,0.794819,-176.845,16.1101)">
                <path d="M82.149,135.898C83.81,138.263 84.88,141.971 84.88,146.137C84.88,150.303 83.81,154.011 82.149,156.376C80.488,154.011 79.417,150.303 79.417,146.137C79.417,141.971 80.488,138.263 82.149,135.898Z" style="fill:white;"/>
            </g>
            <g transform="matrix(2.77556e-16,-1,1.58964,4.44089e-16,-176.24,178.149)">
                <path d="M82.149,135.898C83.81,138.263 84.88,141.971 84.88,146.137C84.88,150.303 83.81,154.011 82.149,156.376C80.488,154.011 79.417,150.303 79.417,146.137C79.417,141.971 80.488,138.263 82.149,135.898Z" style="fill:white;"/>
            </g>
            <g transform="matrix(-0.5,-0.866025,1.37667,-0.794819,-94.6962,318.176)">
                <path d="M82.149,135.898C83.81,138.263 84.88,141.971 84.88,146.137C84.88,150.303 83.81,154.011 82.149,156.376C80.488,154.011 79.417,150.303 79.417,146.137C79.417,141.971 80.488,138.263 82.149,135.898Z" style="fill:white;"/>
            </g>
            <g transform="matrix(-0.866025,-0.5,0.794819,-1.37667,45.9359,398.671)">
                <path d="M82.149,135.898C83.81,138.263 84.88,141.971 84.88,146.137C84.88,150.303 83.81,154.011 82.149,156.376C80.488,154.011 79.417,150.303 79.417,146.137C79.417,141.971 80.488,138.263 82.149,135.898Z" style="fill:white;"/>
            </g>
        </g>
    </g>
</svg>
